X: 1
T:The Glen Lonan Reel
M:4/4
L:1/8
Q:150
C:Stephen P. McNally
S: 1997
K:D
|:(3BBB Bd cf=f^f|(3BBB Bd cABG|Aacd eeed|cAdB edcA|
(3BBB Bd cf=f^f|(3BBB Bd cABG|cAdB eeed|cadA B3 c:|
|:dAFd cAFc|(3BBB BA BAFA|(3BBB BA BcdB|cacd efgd-|
dAFd cAFc|(3BBB BA BAFA|BcdB cacd|caec d3 c:|!
